svg/fluentui-system-icons/ic_fluent_send_beaker_24_filled.svg

<svg width="24" height="24" viewBox="0 0 24 24" fill="none" xmlns="http://www.w3.org/2000/svg">
<path d="M12.8147 11.9499L5.28344 13.2051C5.10705 13.2345 4.95979 13.3558 4.89723 13.5234L2.29933 20.4808C2.05066 21.1202 2.72008 21.7302 3.33375 21.4234L15.2981 15.4412C14.5504 15.2422 13.9995 14.5604 13.9995 13.75C13.9995 12.7835 14.783 12 15.7495 12H21.2495C21.4002 12 21.5465 12.0191 21.686 12.0549C21.8347 11.712 21.7173 11.2736 21.3337 11.0818L3.33375 2.08177C2.72008 1.77494 2.05066 2.38498 2.29933 3.02443L4.89723 9.98182C4.95979 10.1493 5.10705 10.2707 5.28344 10.3001L12.8147 11.5553C12.9236 11.5735 12.9972 11.6765 12.9791 11.7855C12.965 11.8698 12.899 11.9358 12.8147 11.9499ZM15.75 14.5H16.5V17.195C16.5 17.5427 16.4094 17.8844 16.237 18.1863L15.7727 19H21.2261L20.763 18.1886C20.5906 17.8866 20.5 17.5449 20.5 17.1972V14.5H21.25C21.6642 14.5 22 14.1642 22 13.75C22 13.3358 21.6642 13 21.25 13H15.75C15.3358 13 15 13.3358 15 13.75C15 14.1642 15.3358 14.5 15.75 14.5ZM15.2019 20L14.1994 21.7566C13.6287 22.7565 14.3508 24.0001 15.5022 24.0001H21.4965C22.6479 24.0001 23.37 22.7565 22.7993 21.7566L21.7968 20H15.2019Z" fill="#212121"/>
</svg>

<svg xmlns="http://www.w3.org/2000/svg" width="24" height="24"><path d="m12.815 11.95-7.532 1.255a.5.5 0 0 0-.386.318L2.3 20.481c-.248.64.421 1.25 1.035.942l11.964-5.982A1.75 1.75 0 0 1 15.75 12h5.5c.151 0 .298.02.437.055a.75.75 0 0 0-.352-.973l-18-9c-.614-.307-1.283.303-1.035.942l2.598 6.958a.5.5 0 0 0 .386.318l7.532 1.255a.2.2 0 0 1 0 .395Zm2.935 2.55h.75v2.695c0 .348-.09.69-.263.991l-.464.814h5.453l-.463-.811a2 2 0 0 1-.263-.992V14.5h.75a.75.75 0 0 0 0-1.5h-5.5a.75.75 0 0 0 0 1.5Zm-.548 5.5-1.003 1.757A1.5 1.5 0 0 0 15.502 24h5.995a1.5 1.5 0 0 0 1.302-2.243L21.797 20h-6.595Z"/></svg>
